X: 28463
T: Mummer's, The
R: reel
M: 4/4
K: Gmajor
|:ef|~g3 e dBBA|BAdc BG ~G2|DGBG dGBd|dcBG A2 B/c/d|
gfge dged|BGAc BGGF|GA B/c/d gdBG|FG A/G/F G2:|
|:GA|BGdc BG ~G2|dcBc ADEF|GA B/c/d ~g3 b|afge d2 Bc|
d^cd=c BG ~G2|dcBc ADEF|GA B/c/d gdBG|FDAF G2:|

